packages/katcn/src/icons/svg/switch.svg

<svg width="24" height="25" viewBox="0 0 24 25" fill="none" xmlns="http://www.w3.org/2000/svg">
<path fill-rule="evenodd" clip-rule="evenodd" d="M7.7 7.31201C5.15228 7.31201 3 9.4643 3 12.012C3 14.6483 5.14082 16.712 7.7 16.712H16.3C18.8592 16.712 21 14.6483 21 12.012C21 9.4643 18.8477 7.31201 16.3 7.31201H7.7ZM1 12.012C1 8.35973 4.04772 5.31201 7.7 5.31201H16.3C19.9523 5.31201 23 8.35973 23 12.012C23 15.7757 19.9408 18.712 16.3 18.712H7.7C4.05918 18.712 1 15.7757 1 12.012Z" fill="black"/>
<path fill-rule="evenodd" clip-rule="evenodd" d="M16.3 9.01201C14.6431 9.01201 13.3 10.3552 13.3 12.012C13.3 13.6689 14.6431 15.012 16.3 15.012C17.9568 15.012 19.3 13.6689 19.3 12.012C19.3 10.3552 17.9568 9.01201 16.3 9.01201Z" fill="black"/>
</svg>

<svg xmlns="http://www.w3.org/2000/svg" fill="none" viewBox="0 0 24 25"><path fill="#000" fill-rule="evenodd" d="M7.7 7.312c-2.548 0-4.7 2.152-4.7 4.7 0 2.636 2.14 4.7 4.7 4.7h8.6c2.56 0 4.7-2.064 4.7-4.7 0-2.548-2.152-4.7-4.7-4.7zm-6.7 4.7c0-3.652 3.048-6.7 6.7-6.7h8.6c3.652 0 6.7 3.048 6.7 6.7 0 3.764-3.06 6.7-6.7 6.7H7.7c-3.64 0-6.7-2.936-6.7-6.7" clip-rule="evenodd"/><path fill="#000" fill-rule="evenodd" d="M16.3 9.012a3 3 0 1 0 0 6 3 3 0 0 0 0-6" clip-rule="evenodd"/></svg>
